svgs/thin/audio-description.svg

<svg xmlns="http://www.w3.org/2000/svg" viewBox="0 0 576 512"><!--! Font Awesome Pro 6.3.0 by @fontawesome - https://fontawesome.com License - https://fontawesome.com/license (Commercial License) Copyright 2023 Fonticons, Inc. --><path d="M198.1 164.4C197.6 161.7 194.8 160 191.8 160S185.1 161.7 184.6 164.4l-87.8 176c-1.969 3.953-.375 8.766 3.578 10.73C101.6 351.7 102.8 352 104 352c2.938 0 5.766-1.625 7.156-4.422L140.9 288h102.1l29.86 59.58c2 3.969 6.812 5.562 10.73 3.578c3.953-1.984 5.547-6.797 3.578-10.73L198.1 164.4zM148.9 272l42.96-86.11L234.1 272H148.9zM512 32H64C28.65 32 0 60.65 0 96v320c0 35.35 28.65 64 64 64h448c35.35 0 64-28.65 64-64V96C576 60.65 547.3 32 512 32zM560 416c0 26.47-21.53 48-48 48H64c-26.47 0-48-21.53-48-48V96c0-26.47 21.53-48 48-48h448c26.47 0 48 21.53 48 48V416zM392 160h-64C323.6 160 320 163.6 320 168v176c0 4.422 3.594 8 8 8h64c52.94 0 96-43.06 96-96S444.9 160 392 160zM392 336H336v-160h56c44.13 0 80 35.89 80 80S436.1 336 392 336z"/></svg>

<svg xmlns="http://www.w3.org/2000/svg" viewBox="0 0 576 512"><!-- Font Awesome Pro 6.0.0-alpha2 by @fontawesome - https://fontawesome.com License - https://fontawesome.com/license (Commercial License) --><path d="M198.953 164.422C197.594 161.703 194.828 160 191.797 160S185.984 161.719 184.641 164.422L96.844 340.422C94.875 344.375 96.469 349.188 100.422 351.156C101.578 351.734 102.797 352 104 352C106.938 352 109.766 350.375 111.156 347.578L140.877 288H242.986L272.844 347.578C274.844 351.547 279.656 353.141 283.578 351.156C287.531 349.172 289.125 344.359 287.156 340.422L198.953 164.422ZM148.857 272L191.812 185.891L234.967 272H148.857ZM512 32H64C28.654 32 0 60.652 0 96V416C0 451.346 28.654 480 64 480H512C547.348 480 576 451.346 576 416V96C576 60.652 547.348 32 512 32ZM560 416C560 442.467 538.467 464 512 464H64C37.533 464 16 442.467 16 416V96C16 69.533 37.533 48 64 48H512C538.467 48 560 69.533 560 96V416ZM392 160H328C323.594 160 320 163.578 320 168V344C320 348.422 323.594 352 328 352H392C444.938 352 488 308.938 488 256S444.938 160 392 160ZM392 336H336V176H392C436.125 176 472 211.891 472 256S436.125 336 392 336Z"/></svg>
